Newaita/actions/24/input-keyboard.svg

<svg height="24" viewBox="0 0 24 24" width="24" xmlns="http://www.w3.org/2000/svg"><g fill="#424242" fill-opacity=".995327"><path d="m1.984375 9.613281h19.847656v.992188h-19.847656zm0 0"/><path d="m1.984375 13.527344h19.847656v1.046875h-19.847656zm0 0"/><path d="m7.441406 5.148438h.992188v4.960937h-.992188zm0 0"/><path d="m7.441406 13.582031h.992188v4.960938h-.992188zm0 0"/><path d="m14.386719 13.582031h.992187v4.960938h-.992187zm0 0"/><path d="m11.90625 5.148438h.992188v4.960937h-.992188zm0 0"/><path d="m6.449219 9.613281h.992187v4.960938h-.992187zm0 0"/><path d="m10.914062 9.613281h.992188v4.960938h-.992188zm0 0"/><path d="m15.378906 9.613281h.992188v4.960938h-.992188zm0 0"/><path d="m16.371094 5.148438h.992187v4.960937h-.992187zm0 0"/><path d="m3.472656 4.652344c-.824218 0-1.488281.664062-1.488281 1.488281v11.90625c0 .828125.664063 1.488281 1.488281 1.488281h16.867188c.828125 0 1.492187-.660156 1.492187-1.488281v-11.90625c0-.824219-.664062-1.488281-1.492187-1.488281zm.992188 1.984375h14.882812c.277344 0 .496094.222656.496094.496093v9.921876c0 .277343-.21875.496093-.496094.496093h-14.882812c-.273438 0-.496094-.21875-.496094-.496093v-9.921876c0-.273437.222656-.496093.496094-.496093zm0 0"/></g></svg>

<svg xmlns="http://www.w3.org/2000/svg" xmlns:xlink="http://www.w3.org/1999/xlink" width="24px" height="24px" viewBox="0 0 24 24" version="1.1">
<g id="surface1">
<path style=" stroke:none;fill-rule:nonzero;fill:rgb(25.882354%,25.882354%,25.882354%);fill-opacity:0.995327;" d="M 1.984375 9.613281 L 21.832031 9.613281 L 21.832031 10.605469 L 1.984375 10.605469 Z M 1.984375 9.613281 "/>
<path style=" stroke:none;fill-rule:nonzero;fill:rgb(25.882354%,25.882354%,25.882354%);fill-opacity:0.995327;" d="M 1.984375 13.527344 L 21.832031 13.527344 L 21.832031 14.574219 L 1.984375 14.574219 Z M 1.984375 13.527344 "/>
<path style=" stroke:none;fill-rule:nonzero;fill:rgb(25.882354%,25.882354%,25.882354%);fill-opacity:0.995327;" d="M 7.441406 5.148438 L 8.433594 5.148438 L 8.433594 10.109375 L 7.441406 10.109375 Z M 7.441406 5.148438 "/>
<path style=" stroke:none;fill-rule:nonzero;fill:rgb(25.882354%,25.882354%,25.882354%);fill-opacity:0.995327;" d="M 7.441406 13.582031 L 8.433594 13.582031 L 8.433594 18.542969 L 7.441406 18.542969 Z M 7.441406 13.582031 "/>
<path style=" stroke:none;fill-rule:nonzero;fill:rgb(25.882354%,25.882354%,25.882354%);fill-opacity:0.995327;" d="M 14.386719 13.582031 L 15.378906 13.582031 L 15.378906 18.542969 L 14.386719 18.542969 Z M 14.386719 13.582031 "/>
<path style=" stroke:none;fill-rule:nonzero;fill:rgb(25.882354%,25.882354%,25.882354%);fill-opacity:0.995327;" d="M 11.90625 5.148438 L 12.898438 5.148438 L 12.898438 10.109375 L 11.90625 10.109375 Z M 11.90625 5.148438 "/>
<path style=" stroke:none;fill-rule:nonzero;fill:rgb(25.882354%,25.882354%,25.882354%);fill-opacity:0.995327;" d="M 6.449219 9.613281 L 7.441406 9.613281 L 7.441406 14.574219 L 6.449219 14.574219 Z M 6.449219 9.613281 "/>
<path style=" stroke:none;fill-rule:nonzero;fill:rgb(25.882354%,25.882354%,25.882354%);fill-opacity:0.995327;" d="M 10.914062 9.613281 L 11.90625 9.613281 L 11.90625 14.574219 L 10.914062 14.574219 Z M 10.914062 9.613281 "/>
<path style=" stroke:none;fill-rule:nonzero;fill:rgb(25.882354%,25.882354%,25.882354%);fill-opacity:0.995327;" d="M 15.378906 9.613281 L 16.371094 9.613281 L 16.371094 14.574219 L 15.378906 14.574219 Z M 15.378906 9.613281 "/>
<path style=" stroke:none;fill-rule:nonzero;fill:rgb(25.882354%,25.882354%,25.882354%);fill-opacity:0.995327;" d="M 16.371094 5.148438 L 17.363281 5.148438 L 17.363281 10.109375 L 16.371094 10.109375 Z M 16.371094 5.148438 "/>
<path style=" stroke:none;fill-rule:nonzero;fill:rgb(25.882354%,25.882354%,25.882354%);fill-opacity:0.995327;" d="M 3.472656 4.652344 C 2.648438 4.652344 1.984375 5.316406 1.984375 6.140625 L 1.984375 18.046875 C 1.984375 18.875 2.648438 19.535156 3.472656 19.535156 L 20.339844 19.535156 C 21.167969 19.535156 21.832031 18.875 21.832031 18.046875 L 21.832031 6.140625 C 21.832031 5.316406 21.167969 4.652344 20.339844 4.652344 Z M 4.464844 6.636719 L 19.347656 6.636719 C 19.625 6.636719 19.84375 6.859375 19.84375 7.132812 L 19.84375 17.054688 C 19.84375 17.332031 19.625 17.550781 19.347656 17.550781 L 4.464844 17.550781 C 4.191406 17.550781 3.96875 17.332031 3.96875 17.054688 L 3.96875 7.132812 C 3.96875 6.859375 4.191406 6.636719 4.464844 6.636719 Z M 4.464844 6.636719 "/>
</g>
</svg>
